X:1
T:Sinner Man
M:2/2
L:1/8
K:F
 A2 FE D4| A3.99999962500005/5.99999925000009 A3.99999962500005/5.99999925000009 A3.99999962500005/5.99999925000009 AG A2 c2|\
 G2 ED C4| E3.99999962500005/5.99999925000009 E3.99999962500005/5.99999925000009 E3.99999962500005/5.99999925000009 GE G2 A2|\
 G2 FE D4| F3.99999962500005/5.99999925000009 F3.99999962500005/5.99999925000009 F3.99999962500005/5.99999925000009 AG A2 c2|\
 A3- E G2 E2| D6 z2| A2 FE D3 D| A2 AG A2 c2| G2 ED C3 C| E2 GE G2 A2|\
 G2 FE D3 D| F2 AG A2 c2| A3- E G2 E2| D4 z2 D2| A2 F2 ED DD| AA AG A2 cc|\
 G2 ED CC CC| EE GE G2 AA| G2 FE DD DD| FF AG A2 c2| A3- E G2 E2| D6 z2|\


